components/Common/Svg/svgs/instaRoundBlack.svg

<svg
  width="48"
  height="48"
  viewBox="0 0 48 48"
  fill="none"
  xmlns="http://www.w3.org/2000/svg"
>
  <path
    d="M23.9336 18.3243C20.8317 18.3243 18.3296 20.8263 18.3296 23.9283C18.3296 27.0302 20.8317 29.5322 23.9336 29.5322C27.0356 29.5322 29.5376 27.0302 29.5376 23.9283C29.5376 20.8263 27.0356 18.3243 23.9336 18.3243ZM23.9336 27.5716C21.9291 27.5716 20.2903 25.9377 20.2903 23.9283C20.2903 21.9188 21.9242 20.2849 23.9336 20.2849C25.9431 20.2849 27.577 21.9188 27.577 23.9283C27.577 25.9377 25.9382 27.5716 23.9336 27.5716ZM31.074 18.095C31.074 18.8218 30.4887 19.4022 29.7668 19.4022C29.0401 19.4022 28.4597 18.8169 28.4597 18.095C28.4597 17.3732 29.045 16.7879 29.7668 16.7879C30.4887 16.7879 31.074 17.3732 31.074 18.095ZM34.7856 19.4217C34.7026 17.6707 34.3027 16.1197 33.02 14.8419C31.7421 13.5641 30.1912 13.1641 28.4402 13.0763C26.6356 12.9739 21.2267 12.9739 19.4221 13.0763C17.6761 13.1592 16.1251 13.5592 14.8424 14.837C13.5597 16.1149 13.1646 17.6658 13.0768 19.4168C12.9744 21.2214 12.9744 26.6303 13.0768 28.4349C13.1597 30.1858 13.5597 31.7368 14.8424 33.0146C16.1251 34.2925 17.6712 34.6924 19.4221 34.7802C21.2267 34.8826 26.6356 34.8826 28.4402 34.7802C30.1912 34.6973 31.7421 34.2973 33.02 33.0146C34.2978 31.7368 34.6978 30.1858 34.7856 28.4349C34.888 26.6303 34.888 21.2263 34.7856 19.4217ZM32.4542 30.3711C32.0738 31.3271 31.3373 32.0636 30.3765 32.4489C28.9377 33.0195 25.5236 32.8878 23.9336 32.8878C22.3436 32.8878 18.9247 33.0146 17.4907 32.4489C16.5348 32.0684 15.7983 31.332 15.413 30.3711C14.8424 28.9323 14.9741 25.5183 14.9741 23.9283C14.9741 22.3383 14.8473 18.9193 15.413 17.4854C15.7935 16.5294 16.5299 15.793 17.4907 15.4077C18.9295 14.837 22.3436 14.9687 23.9336 14.9687C25.5236 14.9687 28.9426 14.8419 30.3765 15.4077C31.3325 15.7881 32.0689 16.5246 32.4542 17.4854C33.0249 18.9242 32.8932 22.3383 32.8932 23.9283C32.8932 25.5183 33.0249 28.9372 32.4542 30.3711Z"
    fill="white"
  ></path>
  <circle
    opacity="0.3"
    cx="24"
    cy="24"
    r="23.5"
    stroke="white"
  ></circle>
</svg>

<svg width="48" height="48" viewBox="0 0 48 48" fill="none" xmlns="http://www.w3.org/2000/svg"><path d="M23.934 18.324a5.595 5.595 0 0 0-5.604 5.604 5.595 5.595 0 0 0 5.604 5.604 5.595 5.595 0 0 0 5.604-5.604 5.595 5.595 0 0 0-5.604-5.604Zm0 9.248a3.65 3.65 0 0 1-3.644-3.644 3.647 3.647 0 0 1 3.644-3.643 3.647 3.647 0 0 1 3.643 3.643 3.65 3.65 0 0 1-3.643 3.644Zm7.14-9.477c0 .727-.585 1.307-1.307 1.307a1.307 1.307 0 1 1 1.307-1.307Zm3.712 1.327c-.083-1.751-.483-3.302-1.766-4.58-1.278-1.278-2.829-1.678-4.58-1.766-1.804-.102-7.213-.102-9.018 0-1.746.083-3.297.483-4.58 1.761-1.282 1.278-1.677 2.829-1.765 4.58-.103 1.804-.103 7.213 0 9.018.083 1.75.483 3.302 1.765 4.58 1.283 1.277 2.83 1.677 4.58 1.765 1.805.103 7.214.103 9.018 0 1.751-.083 3.302-.483 4.58-1.765 1.278-1.278 1.678-2.83 1.766-4.58.102-1.805.102-7.209 0-9.013Zm-2.332 10.95a3.688 3.688 0 0 1-2.078 2.077c-1.438.57-4.852.439-6.442.439-1.59 0-5.01.127-6.443-.44a3.689 3.689 0 0 1-2.078-2.077c-.57-1.439-.439-4.853-.439-6.443 0-1.59-.127-5.009.439-6.443a3.689 3.689 0 0 1 2.078-2.077c1.439-.571 4.853-.44 6.443-.44 1.59 0 5.009-.126 6.442.44a3.688 3.688 0 0 1 2.078 2.077c.57 1.44.44 4.853.44 6.443 0 1.59.13 5.01-.44 6.443Z" fill="#fff"/><circle opacity=".3" cx="24" cy="24" r="23.5" stroke="#fff"/></svg>
